material/.icons/material/hospital-marker.svg

<svg xmlns="http://www.w3.org/2000/svg" viewBox="0 0 24 24"><path d="M12 2c3.86 0 7 3.13 7 7 0 5.25-7 13-7 13S5 14.25 5 9a7 7 0 017-7M9 6v6h2v-2h2v2h2V6h-2v2h-2V6H9z"/></svg>

<?xml version="1.0" encoding="UTF-8"?><!DOCTYPE svg PUBLIC "-//W3C//DTD SVG 1.1//EN" "http://www.w3.org/Graphics/SVG/1.1/DTD/svg11.dtd"><svg xmlns="http://www.w3.org/2000/svg" xmlns:xlink="http://www.w3.org/1999/xlink" version="1.1" id="mdi-hospital-marker" width="24" height="24" viewBox="0 0 24 24"><path d="M12,2C15.86,2 19,5.13 19,9C19,14.25 12,22 12,22C12,22 5,14.25 5,9A7,7 0 0,1 12,2M9,6V12H11V10H13V12H15V6H13V8H11V6H9Z" /></svg>
